**harm	**harte	**timestamp	**phrase	**leadinstrument	**kern
*M4/4	*M4/4	*	*	*	*
*B-:	*B-:	*	*	*	*B-:
1r;	N	0	.	r	1r;
=1	=1	=1	=1	=1	=1
*>A_intro	*>A_intro	*>A_intro	*>A_intro	*>A_intro	*>A_intro
1I	B-:5	0.372	newline	guitar	1B- 1dd 1ff
=2	=2	=2	=2	=2	=2
1I	B-:5	2.334	.	guitar	1B- 1dd 1ff
=3	=3	=3	=3	=3	=3
1I	B-:5	4.296	.	guitar	1B- 1dd 1ff
=4	=4	=4	=4	=4	=4
1I	B-:5	6.258	.	guitar	1B- 1dd 1ff
=5	=5	=5	=5	=5	=5
1I	B-:maj	8.22	newline	guitar	1B- 1dd 1ff
=6	=6	=6	=6	=6	=6
1-VII	A-:maj	10.16	.	guitar	1A- 1cc 1ee-
=7	=7	=7	=7	=7	=7
1IVb	E-:maj/3	12.099	.	guitar	1e- 1G 1b-
=8	=8	=8	=8	=8	=8
1-VII	A-:maj	14.039	.	guitar	1A- 1cc 1ee-
=9	=9	=9	=9	=9	=9
1I	B-:maj	15.979	newline	guitar	1B- 1dd 1ff
=10	=10	=10	=10	=10	=10
1-VII	A-:maj	17.895	.	guitar	1A- 1cc 1ee-
=11	=11	=11	=11	=11	=11
1IVb	E-:maj/3	19.81	.	guitar	1e- 1G 1b-
=12	=12	=12	=12	=12	=12
1IV	E-:maj	21.726	.	guitar	1E- 1g 1b-
=13	=13	=13	=13	=13	=13
1I	B-:maj	23.642	newline	guitar	1B- 1dd 1ff
=14	=14	=14	=14	=14	=14
1I	B-:maj	25.568	.	guitar	1B- 1dd 1ff
=15	=15	=15	=15	=15	=15
1I	B-:maj	27.495	.	guitar	1B- 1dd 1ff
=16	=16	=16	=16	=16	=16
1I	B-:maj	29.422	.	guitar	1B- 1dd 1ff
=17	=17	=17	=17	=17	=17
1I	B-:maj	31.348	newline	guitar	1B- 1dd 1ff
=18	=18	=18	=18	=18	=18
1I	B-:maj	33.255	.	guitar	1B- 1dd 1ff
=19	=19	=19	=19	=19	=19
*M2/4	*M2/4	*M2/4	*M2/4	*M2/4	*M2/4
2I	B-:maj	35.161	.	guitar	2B- 2dd 2ff
=20	=20	=20	=20	=20	=20
*M4/4	*M4/4	*M4/4	*M4/4	*M4/4	*M4/4
1V	F:maj	36.114	.	guitar	1F 1a 1cc
=21	=21	=21	=21	=21	=21
1V	F:maj	38.02	.	guitar	1F 1a 1cc
=22	=22	=22	=22	=22	=22
*>B_verse	*>B_verse	*>B_verse	*>B_verse	*>B_verse	*>B_verse
1I	B-:maj	39.926	newline	voice	1B- 1dd 1ff
=23	=23	=23	=23	=23	=23
1I	B-:maj	41.85	.	voice	1B- 1dd 1ff
=24	=24	=24	=24	=24	=24
1I	B-:maj	43.773	.	voice	1B- 1dd 1ff
=25	=25	=25	=25	=25	=25
1I	B-:maj	45.697	.	voice	1B- 1dd 1ff
=26	=26	=26	=26	=26	=26
1I	B-:maj	47.621	newline	voice	1B- 1dd 1ff
=27	=27	=27	=27	=27	=27
1I	B-:maj	49.523	.	voice	1B- 1dd 1ff
=28	=28	=28	=28	=28	=28
*M2/4	*M2/4	*M2/4	*M2/4	*M2/4	*M2/4
2I	B-:maj	51.424	.	voice	2B- 2dd 2ff
=29	=29	=29	=29	=29	=29
*M4/4	*M4/4	*M4/4	*M4/4	*M4/4	*M4/4
1V	F:maj	52.375	.	voice	1F 1a 1cc
=30	=30	=30	=30	=30	=30
1V	F:maj6	54.277	.	voice	1F 1a 1cc
=31	=31	=31	=31	=31	=31
1V7	F:9	56.179	.	voice	1F 1a 1cc 1ee-
=32	=32	=32	=32	=32	=32
1V7	F:9	58.08	.	voice	1F 1a 1cc 1ee-
=33	=33	=33	=33	=33	=33
*>C_chorus	*>C_chorus	*>C_chorus	*>C_chorus	*>C_chorus	*>C_chorus
1I	B-:maj	59.982	newline	voice	1B- 1dd 1ff
=34	=34	=34	=34	=34	=34
1I	B-:maj	61.868	.	voice	1B- 1dd 1ff
=35	=35	=35	=35	=35	=35
1iii7	D:min7	63.754	.	voice	1D 1f 1a 1cc
=36	=36	=36	=36	=36	=36
2iii7	D:min7	65.64	.	voice	2D 2f 2a 2cc
2-iiim7	D-:min7	66.583	.	voice	2D- 2f- 2a- 2cc
=37	=37	=37	=37	=37	=37
1ii7	C:min7	67.526	newline	voice	1C 1e- 1g 1b-
=38	=38	=38	=38	=38	=38
1IV	E-:maj	69.426	.	voice	1E- 1g 1b-
=39	=39	=39	=39	=39	=39
1V7	F:7	71.326	.	voice	1F 1a 1cc 1ee-
=40	=40	=40	=40	=40	=40
1V7	F:7	73.227	.	voice	1F 1a 1cc 1ee-
=41	=41	=41	=41	=41	=41
1I	B-:maj	75.127	newline	voice	1B- 1dd 1ff
=42	=42	=42	=42	=42	=42
1I	B-:maj	77.032	.	voice	1B- 1dd 1ff
=43	=43	=43	=43	=43	=43
1vi7	G:min7	78.937	.	voice	1G 1b- 1dd 1ff
=44	=44	=44	=44	=44	=44
2vi7	G:min7	80.842	.	voice	2G 2b- 2dd 2ff
2V	F:maj	81.795	.	voice	2F 2a 2cc
=45	=45	=45	=45	=45	=45
1IV	E-:maj	82.747	newline	voice	1E- 1g 1b-
=46	=46	=46	=46	=46	=46
1IV	E-:maj	84.669	.	voice	1E- 1g 1b-
=47	=47	=47	=47	=47	=47
1V	F:maj	86.591	.	voice	1F 1a 1cc
=48	=48	=48	=48	=48	=48
1V	F:maj	88.513	.	voice	1F 1a 1cc
=49	=49	=49	=49	=49	=49
*>D_interlude	*>D_interlude	*>D_interlude	*>D_interlude	*>D_interlude	*>D_interlude
2-VII	A-:maj	90.434	newline	voice	2A- 2cc 2ee-
2IVb	E-:maj/3	91.402	.	voice	2e- 2G 2b-
=50	=50	=50	=50	=50	=50
*M2/4	*M2/4	*M2/4	*M2/4	*M2/4	*M2/4
2I	B-:maj	92.37	.	voice	2B- 2dd 2ff
=51	=51	=51	=51	=51	=51
*M4/4	*M4/4	*M4/4	*M4/4	*M4/4	*M4/4
2-VII	A-:maj	93.338	newline	voice	2A- 2cc 2ee-
2IVb	E-:maj/3	94.305	.	voice	2e- 2G 2b-
=52	=52	=52	=52	=52	=52
*M2/4	*M2/4	*M2/4	*M2/4	*M2/4	*M2/4
2I	B-:maj	95.272	.	voice	2B- 2dd 2ff
=53	=53	=53	=53	=53	=53
*M4/4	*M4/4	*M4/4	*M4/4	*M4/4	*M4/4
2-VII	A-:maj	96.239	newline	voice	2A- 2cc 2ee-
2IVb	E-:maj/3	97.187	.	voice	2e- 2G 2b-
=54	=54	=54	=54	=54	=54
1V	F:sus4(b7)	98.136	.	voice	1F 1a 1cc
=55	=55	=55	=55	=55	=55
1V	F:sus4(b7)	100.034	.	voice	1F 1a 1cc
=56	=56	=56	=56	=56	=56
*>B_verse	*>B_verse	*>B_verse	*>B_verse	*>B_verse	*>B_verse
1I	B-:maj	101.931	newline	voice	1B- 1dd 1ff
=57	=57	=57	=57	=57	=57
1I	B-:maj	103.846	.	voice	1B- 1dd 1ff
=58	=58	=58	=58	=58	=58
1I	B-:maj	105.76	.	voice	1B- 1dd 1ff
=59	=59	=59	=59	=59	=59
1I	B-:maj	107.675	.	voice	1B- 1dd 1ff
=60	=60	=60	=60	=60	=60
1I	B-:maj	109.59	newline	voice	1B- 1dd 1ff
=61	=61	=61	=61	=61	=61
1I	B-:maj	111.498	.	voice	1B- 1dd 1ff
=62	=62	=62	=62	=62	=62
*M2/4	*M2/4	*M2/4	*M2/4	*M2/4	*M2/4
2I	B-:maj	113.407	.	voice	2B- 2dd 2ff
=63	=63	=63	=63	=63	=63
*M4/4	*M4/4	*M4/4	*M4/4	*M4/4	*M4/4
1V	F:maj	114.362	.	voice	1F 1a 1cc
=64	=64	=64	=64	=64	=64
1V	F:maj6	116.271	.	voice	1F 1a 1cc
=65	=65	=65	=65	=65	=65
1V7	F:9	118.18	.	voice	1F 1a 1cc 1ee-
=66	=66	=66	=66	=66	=66
1V7	F:9	120.088	.	voice	1F 1a 1cc 1ee-
=67	=67	=67	=67	=67	=67
*>C_chorus	*>C_chorus	*>C_chorus	*>C_chorus	*>C_chorus	*>C_chorus
1I	B-:maj	121.997	newline	voice	1B- 1dd 1ff
=68	=68	=68	=68	=68	=68
1I	B-:maj	123.881	.	voice	1B- 1dd 1ff
=69	=69	=69	=69	=69	=69
1iii7	D:min7	125.765	.	voice	1D 1f 1a 1cc
=70	=70	=70	=70	=70	=70
2iii7	D:min7	127.649	.	voice	2D 2f 2a 2cc
2-iiim7	D-:min7	128.591	.	voice	2D- 2f- 2a- 2cc
=71	=71	=71	=71	=71	=71
1ii7	C:min7	129.533	newline	voice	1C 1e- 1g 1b-
=72	=72	=72	=72	=72	=72
1IV	E-:maj	131.417	.	voice	1E- 1g 1b-
=73	=73	=73	=73	=73	=73
1V7	F:7	133.301	.	voice	1F 1a 1cc 1ee-
=74	=74	=74	=74	=74	=74
1V7	F:7	135.186	.	voice	1F 1a 1cc 1ee-
=75	=75	=75	=75	=75	=75
1I	B-:maj	137.07	newline	voice	1B- 1dd 1ff
=76	=76	=76	=76	=76	=76
1I	B-:maj	138.94	.	voice	1B- 1dd 1ff
=77	=77	=77	=77	=77	=77
1vi7	G:min7	140.809	.	voice	1G 1b- 1dd 1ff
=78	=78	=78	=78	=78	=78
2vi7	G:min7	142.679	.	voice	2G 2b- 2dd 2ff
2V	F:maj	143.614	.	voice	2F 2a 2cc
=79	=79	=79	=79	=79	=79
1IV	E-:maj	144.549	newline	voice	1E- 1g 1b-
=80	=80	=80	=80	=80	=80
1IV	E-:maj	146.418	.	voice	1E- 1g 1b-
=81	=81	=81	=81	=81	=81
1V	F:maj	148.287	.	voice	1F 1a 1cc
=82	=82	=82	=82	=82	=82
1V	F:maj	150.157	.	voice	1F 1a 1cc
=83	=83	=83	=83	=83	=83
*>D_interlude	*>D_interlude	*>D_interlude	*>D_interlude	*>D_interlude	*>D_interlude
2-VII	A-:maj	152.026	newline	voice	2A- 2cc 2ee-
2IVb	E-:maj/3	152.983	.	voice	2e- 2G 2b-
=84	=84	=84	=84	=84	=84
*M2/4	*M2/4	*M2/4	*M2/4	*M2/4	*M2/4
2I	B-:maj	153.94	.	voice	2B- 2dd 2ff
=85	=85	=85	=85	=85	=85
*M4/4	*M4/4	*M4/4	*M4/4	*M4/4	*M4/4
2-VII	A-:maj	154.897	newline	voice	2A- 2cc 2ee-
2IVb	E-:maj/3	155.85	.	voice	2e- 2G 2b-
=86	=86	=86	=86	=86	=86
*M2/4	*M2/4	*M2/4	*M2/4	*M2/4	*M2/4
2I	B-:maj	156.803	.	voice	2B- 2dd 2ff
=87	=87	=87	=87	=87	=87
*M4/4	*M4/4	*M4/4	*M4/4	*M4/4	*M4/4
2-VII	A-:maj	157.756	newline	voice	2A- 2cc 2ee-
2IVb	E-:maj/3	158.699	.	voice	2e- 2G 2b-
=88	=88	=88	=88	=88	=88
1V	F:sus4(b7)	159.642	.	voice	1F 1a 1cc
=89	=89	=89	=89	=89	=89
1V	F:sus4(b7)	161.529	.	voice	1F 1a 1cc
=90	=90	=90	=90	=90	=90
*>B2_solo	*>B2_solo	*>B2_solo	*>B2_solo	*>B2_solo	*>B2_solo
1I	B-:maj	163.416	newline	guitar	1B- 1dd 1ff
=91	=91	=91	=91	=91	=91
1I	B-:maj	165.34	.	guitar	1B- 1dd 1ff
=92	=92	=92	=92	=92	=92
1I	B-:maj	167.263	.	guitar	1B- 1dd 1ff
=93	=93	=93	=93	=93	=93
1I	B-:maj	169.187	.	guitar	1B- 1dd 1ff
=94	=94	=94	=94	=94	=94
1I	B-:maj	171.111	newline	guitar	1B- 1dd 1ff
=95	=95	=95	=95	=95	=95
1I	B-:maj	173.012	.	guitar	1B- 1dd 1ff
=96	=96	=96	=96	=96	=96
*M2/4	*M2/4	*M2/4	*M2/4	*M2/4	*M2/4
2vi7	G:min7	174.914	.	guitar	2G 2b- 2dd 2ff
=97	=97	=97	=97	=97	=97
*M4/4	*M4/4	*M4/4	*M4/4	*M4/4	*M4/4
1V	F:maj	175.865	.	guitar	1F 1a 1cc
=98	=98	=98	=98	=98	=98
1V	F:maj	177.766	.	guitar	1F 1a 1cc
=99	=99	=99	=99	=99	=99
*>B2_verse	*>B2_verse	*>B2_verse	*>B2_verse	*>B2_verse	*>B2_verse
1I	B-:maj	179.668	newline	voice	1B- 1dd 1ff
=100	=100	=100	=100	=100	=100
1I	B-:maj	181.562	.	voice	1B- 1dd 1ff
=101	=101	=101	=101	=101	=101
1I	B-:maj	183.456	.	voice	1B- 1dd 1ff
=102	=102	=102	=102	=102	=102
1I	B-:maj	185.35	.	voice	1B- 1dd 1ff
=103	=103	=103	=103	=103	=103
1I	B-:maj	187.244	newline	voice	1B- 1dd 1ff
=104	=104	=104	=104	=104	=104
1I	B-:maj	189.131	.	voice	1B- 1dd 1ff
=105	=105	=105	=105	=105	=105
*M2/4	*M2/4	*M2/4	*M2/4	*M2/4	*M2/4
2vi7	G:min7	191.019	.	voice	2G 2b- 2dd 2ff
=106	=106	=106	=106	=106	=106
*M4/4	*M4/4	*M4/4	*M4/4	*M4/4	*M4/4
1V	F:maj	191.963	.	voice	1F 1a 1cc
=107	=107	=107	=107	=107	=107
1V	F:maj	193.85	.	voice	1F 1a 1cc
=108	=108	=108	=108	=108	=108
1I	B-:maj	195.738	newline	voice	1B- 1dd 1ff
=109	=109	=109	=109	=109	=109
1I	B-:maj	197.637	.	voice	1B- 1dd 1ff
=110	=110	=110	=110	=110	=110
1I	B-:maj	199.536	.	voice	1B- 1dd 1ff
=111	=111	=111	=111	=111	=111
1I	B-:maj	201.435	.	voice	1B- 1dd 1ff
=112	=112	=112	=112	=112	=112
1I	B-:maj	203.334	newline	voice	1B- 1dd 1ff
=113	=113	=113	=113	=113	=113
1I	B-:maj	205.208	.	voice	1B- 1dd 1ff
=114	=114	=114	=114	=114	=114
*M2/4	*M2/4	*M2/4	*M2/4	*M2/4	*M2/4
2vi7	G:min7	207.082	.	voice	2G 2b- 2dd 2ff
=115	=115	=115	=115	=115	=115
*M4/4	*M4/4	*M4/4	*M4/4	*M4/4	*M4/4
1V	F:maj	208.019	.	voice	1F 1a 1cc
=116	=116	=116	=116	=116	=116
1V	F:maj	209.894	.	voice	1F 1a 1cc
=117	=117	=117	=117	=117	=117
1I	B-:maj	211.768	newline	voice	1B- 1dd 1ff
=118	=118	=118	=118	=118	=118
1I	B-:maj	213.64	.	voice	1B- 1dd 1ff
=119	=119	=119	=119	=119	=119
1I	B-:maj	215.511	.	voice	1B- 1dd 1ff
=120	=120	=120	=120	=120	=120
1I	B-:maj	217.383	.	voice	1B- 1dd 1ff
=121	=121	=121	=121	=121	=121
*>_fadeout	*>_fadeout	*>_fadeout	*>_fadeout	*>_fadeout	*>_fadeout
1I	B-:maj	219.255	newline	voice	1B- 1dd 1ff
=122	=122	=122	=122	=122	=122
1I	B-:maj	221.1	.	voice	1B- 1dd 1ff
=123	=123	=123	=123	=123	=123
*M2/4	*M2/4	*M2/4	*M2/4	*M2/4	*M2/4
2vi7	G:min7	222.944	.	voice	2G 2b- 2dd 2ff
=124	=124	=124	=124	=124	=124
*M4/4	*M4/4	*M4/4	*M4/4	*M4/4	*M4/4
1V	F:maj	223.867	.	voice	1F 1a 1cc
=125	=125	=125	=125	=125	=125
1V	F:maj	225.712	.	voice	1F 1a 1cc
=126	=126	=126	=126	=126	=126
1I	B-:maj	227.557	newline	voice	1B- 1dd 1ff
=127	=127	=127	=127	=127	=127
1I	B-:maj	229.442	.	voice	1B- 1dd 1ff
=128	=128	=128	=128	=128	=128
1I	B-:maj	231.328	.	voice	1B- 1dd 1ff
=129	=129	=129	=129	=129	=129
1I	B-:maj	233.213	.	voice	1B- 1dd 1ff
=130	=130	=130	=130	=130	=130
1I	B-:maj	235.099	newline	voice	1B- 1dd 1ff
=131	=131	=131	=131	=131	=131
1I	B-:maj	236.987	.	voice	1B- 1dd 1ff
=132	=132	=132	=132	=132	=132
*M2/4	*M2/4	*M2/4	*M2/4	*M2/4	*M2/4
2vi7	G:min7	238.874	.	voice	2G 2b- 2dd 2ff
=133	=133	=133	=133	=133	=133
*M4/4	*M4/4	*M4/4	*M4/4	*M4/4	*M4/4
1V	F:maj	239.818	.	voice	1F 1a 1cc
=134	=134	=134	=134	=134	=134
1V	F:maj	241.706	.	voice	1F 1a 1cc
1r;	N	243.593	.	r	1r;
1r;	N	245.773	.	r	1r;
*-	*-	*-	*-	*-	*-
!!!OTL: Alive Again
!!!COC: Chicago
!!!BillboardChartDate: 1978/11/18
!!!BillboardPeak: 14
!!!BillboardWeeksOnChart: 13
!!!SampleTargetRank: 17
!!!SampleActualRank: 17
!!!SampleID#: 1240
!!!RDF**harmony: **recip + pitch class of root + harmonic quality
!!!RDF**harte: Chris Harte's syntax, used by MIREX
!!!RDF**phrase: newline = linebreak in original McGill transcription
!!!RDF**timestamp: McGill audio timestamp in seconds
!!!RDF**leadinstrument: original McGill primary instrumentation annotation
!!!RDT: 2017/01/12/
!!!ENC: Nathaniel Condit-Schultz
!!!EST: Awating manual error checking and editing.
